lib/functional/brands/codesandbox-logo.svg

<svg xmlns="http://www.w3.org/2000/svg" fill="none" stroke="currentColor" aria-hidden="true" viewBox="0 0 32 32"><g id="Icon-CodesandboxLogo"><g clip-path="url(#clip0_11_3842)"><g id="size=md (32px)"><path id="Vector" stroke-linecap="round" stroke-linejoin="round" stroke-width="2" d="M28 22.1625V9.83753C27.999 9.6595 27.9512 9.48487 27.8612 9.33125C27.7712 9.17763 27.6423 9.05045 27.4875 8.96253L16.4875 2.77503C16.3393 2.68946 16.1711 2.64441 16 2.64441C15.8289 2.64441 15.6607 2.68946 15.5125 2.77503L4.5125 8.96253C4.35769 9.05045 4.22879 9.17763 4.13882 9.33125C4.04884 9.48487 4.00096 9.6595 4 9.83753V22.1625C4.00096 22.3406 4.04884 22.5152 4.13882 22.6688C4.22879 22.8224 4.35769 22.9496 4.5125 23.0375L15.5125 29.225C15.6607 29.3106 15.8289 29.3557 16 29.3557C16.1711 29.3557 16.3393 29.3106 16.4875 29.225L27.4875 23.0375C27.6423 22.9496 27.7712 22.8224 27.8612 22.6688C27.9512 22.5152 27.999 22.3406 28 22.1625V22.1625Z"/><path id="Vector_2" stroke-linecap="round" stroke-linejoin="round" stroke-width="2" d="M27.8627 9.32495L16.1127 16L4.1377 9.32495"/><path id="Vector_3" stroke-linecap="round" stroke-linejoin="round" stroke-width="2" d="M16.1125 16L16 29.35"/><path id="Vector_4" stroke-linecap="round" stroke-linejoin="round" stroke-width="2" d="M22.125 5.9375L16 9.3875L9.875 5.9375"/><path id="Vector_5" stroke-linecap="round" stroke-linejoin="round" stroke-width="2" d="M22 26.125V19.2375L28 15.8625"/><path id="Vector_6" stroke-linecap="round" stroke-linejoin="round" stroke-width="2" d="M10 26.125V19.2375L4 15.8625"/></g></g></g><defs><clipPath id="clip0_11_3842"><rect width="32" height="32" fill="white" rx="5"/></clipPath></defs></svg>

<svg xmlns="http://www.w3.org/2000/svg" fill="none" stroke="currentColor" aria-hidden="true" viewBox="0 0 32 32"><g stroke="#101828" stroke-linecap="round" stroke-linejoin="round" stroke-width="2" clip-path="url(#a)"><path d="M28 22.163V9.838a1.013 1.013 0 0 0-.512-.875l-11-6.188a.975.975 0 0 0-.976 0l-11 6.188A1.012 1.012 0 0 0 4 9.838v12.325a1.012 1.012 0 0 0 .513.875l11 6.187a.975.975 0 0 0 .975 0l11-6.188a1.013 1.013 0 0 0 .512-.874v0Z"/><path d="M27.863 9.325 16.113 16 4.138 9.325M16.113 16 16 29.35"/><path d="M22.125 5.938 16 9.387l-6.125-3.45M22 26.125v-6.887l6-3.375M10 26.125v-6.887l-6-3.375"/></g><defs><clipPath id="a"><rect width="32" height="32" fill="#fff" rx="5"/></clipPath></defs></svg>
